X: 33541
T: Raisins And Almonds
R: waltz
M: 3/4
K: Gmajor
B2|e4 B2|e4 B2|d3 ^c d2|e2 B4|d3 d d2|f2 e2 d2|e2 d2 =c2|B4 B2|
d6|d6|d2 G2 A2|B2 D4|D2 G2 A2|B3 A G2|A2 G2 F2|E4 EG|
B6-|B3 A GA|B2 E4|-E4 GA|B3 _B =B2|c2 _e2 =e2|B6-|B4 G2|
F3 G A2|A2 G2 F2|G2 E4-|E6|c3 c c2|c2 _e2 =e2|B6-|B4 G2|
F3 G A2|A2 G2 F2|G2 E4-|E6|B4 B2|_e3 c B2|=e6-|e4||

